public/images/pages/index/setting.svg

<svg fill="none" height="16" viewBox="0 0 16 16" width="16" xmlns="http://www.w3.org/2000/svg" xmlns:xlink="http://www.w3.org/1999/xlink"><linearGradient id="a" gradientUnits="userSpaceOnUse" x1="-7.18437" x2="23.1844" y1="-7.10846" y2="23.2603"><stop offset="0" stop-color="#ff91be"/><stop offset="1" stop-color="#91c3ff"/></linearGradient><path d="m8 10.7332c.37455 0 .72885-.0709 1.06291-.2126.33405-.1417.62256-.334.86551-.577.25308-.25307.45048-.54664.59218-.88069.1417-.33406.2126-.68836.2126-1.06291s-.0709-.72885-.2126-1.06291c-.1417-.33405-.3391-.62256-.59218-.86551-.24295-.25307-.53146-.45047-.86551-.59219-.33406-.14172-.68836-.21258-1.06291-.21258s-.72885.07086-1.06291.21258c-.33405.14172-.62762.33912-.88069.59219-.24295.24295-.43529.53146-.57701.86551-.14172.33406-.21258.68836-.21258 1.06291s.07086.72885.21258 1.06291c.14172.33405.33406.62762.57701.88069.25307.243.54664.4353.88069.577.33406.1417.68836.2126 1.06291.2126zm5.5727-3.67463 1.2147.16703c.1417.02024.2126.09616.2126.22776v1.09328c0 .14172-.0709.2227-.2126.24295l-1.2147.16703c-.0608.34417-.1519.68329-.2734 1.01735l.9718.74403c.1114.0911.1316.1974.0608.3189l-.5467.9414c-.0708.1012-.167.1367-.2885.1063l-1.1388-.4707c-.1113.1417-.2328.2733-.3644.3948-.1215.1215-.248.2379-.3796.3492l.4555 1.1388c.0203.0507.0203.1063 0 .1671-.0202.0607-.0557.1012-.1063.1214l-.9414.5467c-.1114.0708-.2126.0506-.3037-.0608l-.75921-.9566c-.34418.1114-.6833.1974-1.01736.2582l-.16703 1.2147c-.02024.1417-.09616.2126-.22776.2126h-1.09328c-.14172 0-.2227-.0709-.24295-.2126l-.16703-1.2147c-.34418-.0608-.68329-.1519-1.01735-.2734l-.74403.9718c-.09111.1114-.1974.1316-.31888.0608l-.94143-.5467c-.10123-.0708-.13666-.167-.10629-.2885l.47072-1.1388c-.14172-.1113-.27332-.2277-.3948-.3492-.12147-.1316-.23789-.2632-.34924-.3948l-1.13883.4555c-.05061.0203-.10629.0203-.16702 0-.06074-.0202-.10123-.0557-.12148-.1063l-.54664-.9414c-.07086-.1114-.05061-.2126.06074-.3037l.95662-.75922c-.11136-.34418-.1974-.68329-.25814-1.01735l-1.21475-.16703c-.14172-.02024-.21258-.09616-.21258-.22776v-1.09328c0-.14172.07086-.2227.21258-.24295l1.21475-.16703c.06074-.34418.15185-.68329.27332-1.01735l-.9718-.74403c-.11135-.09111-.1316-.1974-.06074-.31888l.54664-.94143c.07086-.10123.16703-.13666.2885-.10629l1.13883.47072c.11135-.14172.22777-.27332.34924-.3948.1316-.12147.2632-.23789.3948-.34924l-.45553-1.13883c-.02025-.05061-.02025-.10629 0-.16702.02024-.06074.05567-.10123.10629-.12148l.94143-.54664c.11135-.07086.21258-.05061.30369.06074l.75921.95662c.34418-.11136.6833-.1974 1.01736-.25814l.16703-1.21475c.02024-.14172.09616-.21258.22776-.21258h1.09328c.14172 0 .2227.07086.24295.21258l.16703 1.21475c.34418.06074.68329.15185 1.01735.27332l.74403-.9718c.0911-.11135.1974-.1316.3189-.06074l.9414.54664c.1114.07086.1417.16703.0911.2885l-.4555 1.13883c.1417.11135.2733.23283.3948.36443.1215.12147.2379.24801.3492.37961l1.1388-.45553c.0507-.02025.1063-.02025.1671 0 .0607.02024.1012.05567.1214.10629l.5467.94143c.0708.11135.0506.21258-.0608.30369l-.9566.75921c.1114.34418.1974.6833.2582 1.01736z" fill="url(#a)"/></svg>

<svg width="16" height="16" viewBox="0 0 16 16" fill="none" xmlns="http://www.w3.org/2000/svg">
<path d="M8 10.7332C8.37455 10.7332 8.72885 10.6623 9.06291 10.5206C9.39696 10.3789 9.68547 10.1866 9.92842 9.9436C10.1815 9.69053 10.3789 9.39696 10.5206 9.06291C10.6623 8.72885 10.7332 8.37455 10.7332 8C10.7332 7.62545 10.6623 7.27115 10.5206 6.93709C10.3789 6.60304 10.1815 6.31453 9.92842 6.07158C9.68547 5.81851 9.39696 5.62111 9.06291 5.47939C8.72885 5.33767 8.37455 5.26681 8 5.26681C7.62545 5.26681 7.27115 5.33767 6.93709 5.47939C6.60304 5.62111 6.30947 5.81851 6.0564 6.07158C5.81345 6.31453 5.62111 6.60304 5.47939 6.93709C5.33767 7.27115 5.26681 7.62545 5.26681 8C5.26681 8.37455 5.33767 8.72885 5.47939 9.06291C5.62111 9.39696 5.81345 9.69053 6.0564 9.9436C6.30947 10.1866 6.60304 10.3789 6.93709 10.5206C7.27115 10.6623 7.62545 10.7332 8 10.7332ZM13.5727 7.05857L14.7874 7.2256C14.9291 7.24584 15 7.32176 15 7.45336V8.54664C15 8.68836 14.9291 8.76934 14.7874 8.78959L13.5727 8.95662C13.5119 9.30079 13.4208 9.63991 13.2993 9.97397L14.2711 10.718C14.3825 10.8091 14.4027 10.9154 14.3319 11.0369L13.7852 11.9783C13.7144 12.0795 13.6182 12.115 13.4967 12.0846L12.3579 11.6139C12.2466 11.7556 12.1251 11.8872 11.9935 12.0087C11.872 12.1302 11.7455 12.2466 11.6139 12.3579L12.0694 13.4967C12.0897 13.5474 12.0897 13.603 12.0694 13.6638C12.0492 13.7245 12.0137 13.765 11.9631 13.7852L11.0217 14.3319C10.9103 14.4027 10.8091 14.3825 10.718 14.2711L9.95879 13.3145C9.61461 13.4259 9.27549 13.5119 8.94143 13.5727L8.7744 14.7874C8.75416 14.9291 8.67824 15 8.54664 15H7.45336C7.31164 15 7.23066 14.9291 7.21041 14.7874L7.04338 13.5727C6.6992 13.5119 6.36009 13.4208 6.02603 13.2993L5.282 14.2711C5.19089 14.3825 5.0846 14.4027 4.96312 14.3319L4.02169 13.7852C3.92046 13.7144 3.88503 13.6182 3.9154 13.4967L4.38612 12.3579C4.2444 12.2466 4.1128 12.1302 3.99132 12.0087C3.86985 11.8771 3.75343 11.7455 3.64208 11.6139L2.50325 12.0694C2.45264 12.0897 2.39696 12.0897 2.33623 12.0694C2.27549 12.0492 2.235 12.0137 2.21475 11.9631L1.66811 11.0217C1.59725 10.9103 1.6175 10.8091 1.72885 10.718L2.68547 9.95878C2.57411 9.6146 2.48807 9.27549 2.42733 8.94143L1.21258 8.7744C1.07086 8.75416 1 8.67824 1 8.54664V7.45336C1 7.31164 1.07086 7.23066 1.21258 7.21041L2.42733 7.04338C2.48807 6.6992 2.57918 6.36009 2.70065 6.02603L1.72885 5.282C1.6175 5.19089 1.59725 5.0846 1.66811 4.96312L2.21475 4.02169C2.28561 3.92046 2.38178 3.88503 2.50325 3.9154L3.64208 4.38612C3.75343 4.2444 3.86985 4.1128 3.99132 3.99132C4.12292 3.86985 4.25452 3.75343 4.38612 3.64208L3.93059 2.50325C3.91034 2.45264 3.91034 2.39696 3.93059 2.33623C3.95083 2.27549 3.98626 2.235 4.03688 2.21475L4.97831 1.66811C5.08966 1.59725 5.19089 1.6175 5.282 1.72885L6.04121 2.68547C6.38539 2.57411 6.72451 2.48807 7.05857 2.42733L7.2256 1.21258C7.24584 1.07086 7.32176 1 7.45336 1H8.54664C8.68836 1 8.76934 1.07086 8.78959 1.21258L8.95662 2.42733C9.3008 2.48807 9.63991 2.57918 9.97397 2.70065L10.718 1.72885C10.8091 1.6175 10.9154 1.59725 11.0369 1.66811L11.9783 2.21475C12.0897 2.28561 12.12 2.38178 12.0694 2.50325L11.6139 3.64208C11.7556 3.75343 11.8872 3.87491 12.0087 4.00651C12.1302 4.12798 12.2466 4.25452 12.3579 4.38612L13.4967 3.93059C13.5474 3.91034 13.603 3.91034 13.6638 3.93059C13.7245 3.95083 13.765 3.98626 13.7852 4.03688L14.3319 4.97831C14.4027 5.08966 14.3825 5.19089 14.2711 5.282L13.3145 6.04121C13.4259 6.38539 13.5119 6.72451 13.5727 7.05857Z" fill="url(#paint0_linear)"/>
<defs>
<linearGradient id="paint0_linear" x1="-7.18437" y1="-7.10846" x2="23.1844" y2="23.2603" gradientUnits="userSpaceOnUse">
<stop stop-color="#FF91BE"/>
<stop offset="1" stop-color="#91C3FF"/>
</linearGradient>
</defs>
</svg>
